X: 35
T: Pollonesse #35
M: 3/4
L: 1/16
K: D
Q:120
defg a2a2 a2DE|F2EF G2FG A4|d2de f2f2 d4|cdef g2g2 e4|defg a2a2 a2DE| F2EF G2FG A4| Bdce dfeB cABG|FdEc d4D4:|
A2AB c2cA d2dB|cAdB cAdB c4|d2de f2fd g2ge|fdge fdge dcBA|B2BA G2GF E4|FDGE FDGE C2A,2|B,2fg a2a2 a2DE|
F2EF G2FG A4|Bdce dfec dABG|FdEc d4D4:|

